Numix/48/actions/go-top.svg

<?xml version="1.0" encoding="UTF-8" standalone="no"?>
<svg
   xmlns:dc="http://purl.org/dc/elements/1.1/"
   xmlns:cc="http://creativecommons.org/ns#"
   xmlns:rdf="http://www.w3.org/1999/02/22-rdf-syntax-ns#"
   xmlns:svg="http://www.w3.org/2000/svg"
   xmlns="http://www.w3.org/2000/svg"
   xmlns:sodipodi="http://sodipodi.sourceforge.net/DTD/sodipodi-0.dtd"
   xmlns:inkscape="http://www.inkscape.org/namespaces/inkscape"
   width="48"
   height="48"
   viewBox="0 0 48 48"
   id="svg2"
   version="1.1"
   inkscape:version="0.91 r13725"
   sodipodi:docname="go-top.svg">
  <metadata
     id="metadata16">
    <rdf:RDF>
      <cc:Work
         rdf:about="">
        <dc:format>image/svg+xml</dc:format>
        <dc:type
           rdf:resource="http://purl.org/dc/dcmitype/StillImage" />
        <dc:title></dc:title>
      </cc:Work>
    </rdf:RDF>
  </metadata>
  <defs
     id="defs14" />
  <sodipodi:namedview
     pagecolor="#ffffff"
     bordercolor="#666666"
     borderopacity="1"
     objecttolerance="10"
     gridtolerance="10"
     guidetolerance="10"
     inkscape:pageopacity="0"
     inkscape:pageshadow="2"
     inkscape:window-width="1366"
     inkscape:window-height="704"
     id="namedview12"
     showgrid="true"
     inkscape:zoom="10.351888"
     inkscape:cx="20.782374"
     inkscape:cy="22.205289"
     inkscape:window-x="0"
     inkscape:window-y="27"
     inkscape:window-maximized="1"
     inkscape:current-layer="svg2">
    <inkscape:grid
       type="xygrid"
       id="grid4147" />
  </sodipodi:namedview>
  <g
     style="fill-rule:evenodd"
     id="g4"
     transform="matrix(-1,0,0,-1,48,48)">
    <path
       style="fill:#268bd2"
       d="M 24,4 C 12.957031,4 4,12.957031 4,24 4,28.508221 5.5111912,32.654578 8.0292969,36 16,38 30,38 39.970703,36 42.488809,32.654578 44,28.508221 44,24 44,12.957031 35.042969,4 24,4 Z"
       id="path6"
       inkscape:connector-curvature="0"
       sodipodi:nodetypes="ssccss" />
    <path
       style="fill:#eaf4fb;fill-opacity:1"
       d="m 8,36 c 4,6 9.921875,8 16,8 6.066406,0 12,-2 16,-8"
       id="path8"
       inkscape:connector-curvature="0" />
  </g>
  <path
     style="fill:#eaf4fb;fill-opacity:1"
     d="m 24.007176,12 c -0.613281,0 -1.195312,0.261719 -1.625,0.6875 l -7.6875,7.4375 c -0.425781,0.402344 -0.671874,0.976562 -0.6875,1.5625 -0.03125,0.929688 0.496094,1.761719 1.375,2.125 0.875,0.363281 1.902344,0.167969 2.5625,-0.5 l 4.0625,-3.9375 0,16.625 4,0 0,-16.625 4.0625,3.9375 c 0.898438,0.875 2.347657,0.875 3.25,0 0.898438,-0.875 0.898438,-2.3125 0,-3.1875 l -7.6875,-7.4375 C 25.198583,12.261719 24.616552,12 24.007176,12 Z"
     id="path10"
     inkscape:connector-curvature="0" />
</svg>

<svg width="48" xmlns="http://www.w3.org/2000/svg" height="48" viewBox="0 0 48 48" xmlns:xlink="http://www.w3.org/1999/xlink">
<g style="fill-rule:evenodd">
<path style="fill:#268bd2" d="M 24 4 C 12.957031 4 4 12.957031 4 24 C 4 35.042969 12.957031 44 24 44 C 35.042969 44 44 35.042969 44 24 C 44 12.957031 35.042969 4 24 4 Z "/>
<path style="fill:#fff;fill-opacity:.902" d="M 40 12 C 36 6 30.078125 4 24 4 C 17.933594 4 12 6 8 12 "/>
</g>
<path style="fill:#fff;fill-opacity:.902" d="M 24.007812 12 C 23.394531 12 22.8125 12.261719 22.382812 12.6875 L 14.695312 20.125 C 14.269531 20.527344 14.023438 21.101562 14.007812 21.6875 C 13.976562 22.617188 14.503906 23.449219 15.382812 23.8125 C 16.257812 24.175781 17.285156 23.980469 17.945312 23.3125 L 22.007812 19.375 L 22.007812 36 L 26.007812 36 L 26.007812 19.375 L 30.070312 23.3125 C 30.96875 24.1875 32.417969 24.1875 33.320312 23.3125 C 34.21875 22.4375 34.21875 21 33.320312 20.125 L 25.632812 12.6875 C 25.199219 12.261719 24.617188 12 24.007812 12 Z "/>
</svg>
